components/AnnouncementBar/logos/color-flywheel.svg

<svg width="208" height="59" viewBox="0 0 208 59" fill="none" xmlns="http://www.w3.org/2000/svg">
<path d="M29.2 6.3999C16.8 6.3999 6.59998 16.3999 6.59998 28.9999C6.59998 41.5999 16.6 51.5999 29.2 51.5999C41.8 51.5999 51.8 41.5999 51.8 28.9999C51.8 16.5999 41.6 6.3999 29.2 6.3999ZM23.2 9.5999C27.2 8.3999 31.6 8.3999 35.6 9.5999C34.4 10.3999 33.4 11.7999 32.8 13.1999C32 15.7999 32.8 18.1999 33.6 20.1999V20.3999C34 21.5999 34.2 23.1999 33 24.1999C32.6 23.7999 32 23.3999 31.4 23.1999C31.6 20.5999 30.2 18.3999 27.2 17.1999H27C25.2 16.3999 23.6 15.5999 22.6 13.9999C22 12.3999 22.4 10.7999 23.2 9.5999ZM32.4 28.9999C32.4 30.7999 31 32.1999 29.2 32.1999C27.4 32.1999 26 30.5999 26 28.9999C26 27.3999 27.4 25.7999 29.2 25.7999C31 25.7999 32.4 27.1999 32.4 28.9999ZM19.6 11.1999C19.4 12.5999 19.6 14.1999 20.4 15.5999C21.6 17.9999 24 18.9999 26 19.9999L26.2 20.1999C27.4 20.7999 28.6 21.5999 28.6 23.1999C28 23.1999 27.4 23.3999 26.8 23.5999C25.2 21.5999 22.4 20.9999 19.6 22.1999H19.4C17.4 22.9999 15.8 23.3999 14.2 22.9999C12.8 22.5999 11.8 21.3999 11.2 19.9999C13 16.1999 16 12.9999 19.6 11.1999ZM9.79997 34.9999C8.59997 31.1999 8.59997 26.9999 9.79997 23.1999C10.6 24.1999 11.8 24.9999 13.2 25.5999C15.8 26.3999 18.2 25.5999 20.4 24.7999H20.6C21.8 24.3999 23.6 24.1999 24.6 25.3999C24.2 25.7999 24 26.3999 23.6 26.9999C21 26.7999 18.6 28.1999 17.4 30.9999H17.2C16.4 32.7999 15.6 34.3999 14 35.1999C12.8 35.5999 11.2 35.5999 9.79997 34.9999ZM19.4 46.7999C15.8 44.7999 13 41.7999 11.2 38.3999C11.6 38.3999 11.8 38.3999 12.2 38.3999C13.4 38.3999 14.4 38.1999 15.4 37.5999C17.8 36.3999 19 34.1999 19.8 32.1999L20 31.9999C20.6 30.7999 21.6 29.3999 23.4 29.5999C23.4 30.1999 23.6 30.7999 23.8 31.3999C21.8 32.9999 21.2 35.7999 22.2 38.5999V38.7999C23 40.5999 23.6 42.1999 23 43.9999C22.4 45.7999 20.8 46.5999 19.6 46.9999L19.4 46.7999ZM35.2 48.3999C31.2 49.5999 26.8 49.5999 22.8 48.3999C24 47.5999 25 46.1999 25.6 44.7999C26.4 42.1999 25.6 39.7999 24.8 37.7999V37.5999C24.4 36.3999 24 34.7999 25.4 33.5999C25.8 33.9999 26.4 34.3999 27 34.5999C26.8 37.1999 28.2 39.3999 31.2 40.7999L31.4 40.9999C33.2 41.7999 34.8 42.5999 35.6 44.1999C36.4 45.5999 36 47.1999 35.2 48.3999C35.4 48.1999 35.4 48.1999 35.2 48.3999ZM38.8 46.7999C39 45.3999 38.8 43.7999 38 42.5999C36.8 40.1999 34.4 39.1999 32.4 38.1999L32.2 37.9999C31 37.3999 29.6 36.3999 29.8 34.7999C30.4 34.7999 31 34.5999 31.6 34.3999C33.2 36.3999 36 36.9999 39 35.9999H39.2C41.2 35.1999 42.8 34.7999 44.4 35.1999C45.8 35.5999 46.8 36.7999 47.4 37.9999C45.4 41.7999 42.4 44.7999 38.8 46.7999ZM49.4 28.9999C49.4 30.9999 49.2 32.9999 48.6 34.7999C47.8 33.7999 46.6 32.9999 45.2 32.5999C42.6 31.7999 40.2 32.5999 38.2 33.3999H38C36.8 33.7999 35 33.9999 33.8 32.7999C34.2 32.3999 34.4 31.7999 34.8 31.3999C35 31.3999 35.2 31.3999 35.4 31.3999C37.8 31.3999 39.8 29.9999 41 27.3999L41.2 27.1999C42 25.3999 42.8 23.7999 44.4 22.9999C45.8 22.3999 47.4 22.3999 48.6 22.9999C49.2 24.9999 49.4 26.9999 49.4 28.9999ZM43 20.3999C40.6 21.5999 39.4 23.7999 38.6 25.7999L38.4 25.9999C37.8 27.1999 36.8 28.5999 35 28.3999C35 27.7999 34.8 27.1999 34.6 26.5999C36.6 24.9999 37.2 22.1999 36.2 19.3999V19.1999C35.4 17.3999 34.8 15.7999 35.4 13.9999C36 12.1999 37.6 11.3999 38.8 10.9999H39C42.6 12.9999 45.4 15.9999 47.2 19.5999C45.8 19.5999 44.4 19.7999 43 20.3999Z" fill="#48C6DD"/>
<path d="M29.2 0.199951C13.4 0.199951 0.599976 13 0.599976 29C0.599976 45 13.4 57.5999 29.4 57.5999C45.2 57.5999 58 44.8 58 29C57.8 13.2 45 0.199951 29.2 0.199951ZM29.2 54C15.4 54 3.99998 42.8 3.99998 29C3.99998 15.2 15.2 3.99995 29 3.99995C42.8 3.99995 54.2 15.2 54.2 29C54.2 42.8 43 54 29.2 54Z" fill="#48C6DD"/>
<path d="M53 5.4C50.4 2.6 46.8 0.6 43.8 0C43.6 0 43.4 -3.8743e-07 43.4 0.4C43.4 0.6 43.4 0.799999 43.6 0.799999C49.8 3.8 54.8 8.8 57.6 15C57.6 15.2 58 15.2 58.2 15.2C58.4 15.2 58.4 15 58.4 14.8C57.6 11.4 55.8 8 53 5.4Z" fill="#48C6DD"/>
<path d="M14.8 57.2C8.6 54.2 3.6 49.2 0.799999 43C0.799999 42.8 0.400001 42.8 0.200001 42.8C7.59959e-07 43 0 43.2 0 43.4C0.6 46.6 2.6 50 5.2 52.8C8 55.6 11.4 57.6 14.4 58.2C14.6 58.2 14.8 58 14.8 57.8C15 57.4 14.8 57.4 14.8 57.2Z" fill="#48C6DD"/>
<path d="M81 17.6001H70.4C70 17.6001 69.8 17.8001 69.8 18.2001V40.0001C69.8 40.4001 70 40.6001 70.4 40.6001H72.6C73 40.6001 73.2 40.4001 73.2 40.0001V30.8001H80C80.4 30.8001 80.6 30.6001 80.6 30.2001V28.0001C80.6 27.6001 80.4 27.4001 80 27.4001H73.2V21.0001H81C81.4 21.0001 81.6 20.8001 81.6 20.4001V18.2001C81.6 17.8001 81.4 17.6001 81 17.6001Z" fill="#48C6DD"/>
<path d="M97.4 37.2001H89.6V18.2001C89.6 17.8001 89.4 17.6001 89 17.6001H86.8C86.4 17.6001 86.2 17.8001 86.2 18.2001V40.0001C86.2 40.4001 86.4 40.6001 86.8 40.6001H97.4C97.8 40.6001 98 40.4001 98 40.0001V37.8001C98 37.6001 97.8 37.2001 97.4 37.2001Z" fill="#48C6DD"/>
<path d="M112.2 17.3999H109.8C109.6 17.3999 109.4 17.5999 109.2 17.7999L104.4 26.5999L99.6 17.7999C99.4 17.5999 99.2 17.3999 99 17.3999H96.6C96.2 17.3999 96 17.5999 96 17.9999C96 18.1999 96 18.1999 96 18.1999L102.6 30.3999V39.7999C102.6 40.1999 102.8 40.3999 103.2 40.3999H105.4C105.8 40.3999 106 40.1999 106 39.7999V30.5999L112.6 18.1999C112.8 17.7999 112.6 17.5999 112.4 17.3999C112.4 17.5999 112.2 17.3999 112.2 17.3999Z" fill="#48C6DD"/>
<path d="M207.4 37.2001H199.6V18.2001C199.6 17.8001 199.4 17.6001 199 17.6001H196.8C196.4 17.6001 196.2 17.8001 196.2 18.2001V40.0001C196.2 40.4001 196.4 40.6001 196.8 40.6001H207.4C207.8 40.6001 208 40.4001 208 40.0001V37.8001C208 37.6001 207.8 37.2001 207.4 37.2001Z" fill="#48C6DD"/>
<path d="M156.8 17.6001H154.6C154.2 17.6001 154 17.8001 154 18.2001V27.4001H146.4V18.2001C146.4 17.8001 146.2 17.6001 145.8 17.6001H143.6C143.2 17.6001 143 17.8001 143 18.2001V40.0001C143 40.4001 143.2 40.6001 143.6 40.6001H145.8C146.2 40.6001 146.4 40.4001 146.4 40.0001V30.8001H154V40.0001C154 40.4001 154.2 40.6001 154.6 40.6001H156.8C157.2 40.6001 157.4 40.4001 157.4 40.0001V18.2001C157.4 17.8001 157 17.6001 156.8 17.6001Z" fill="#48C6DD"/>
<path d="M173.8 17.6001H163C162.6 17.6001 162.4 17.8001 162.4 18.2001V40.0001C162.4 40.4001 162.6 40.6001 163 40.6001H173.8C174.2 40.6001 174.4 40.4001 174.4 40.0001V37.8001C174.4 37.4001 174.2 37.2001 173.8 37.2001H165.8V30.6001H172.8C173.2 30.6001 173.4 30.4001 173.4 30.0001V27.8001C173.4 27.4001 173.2 27.2001 172.8 27.2001H165.8V21.0001H173.8C174.2 21.0001 174.4 20.8001 174.4 20.4001V18.2001C174.4 17.8001 174.2 17.6001 173.8 17.6001Z" fill="#48C6DD"/>
<path d="M190.8 17.6001H180C179.6 17.6001 179.4 17.8001 179.4 18.2001V40.0001C179.4 40.4001 179.6 40.6001 180 40.6001H190.8C191.2 40.6001 191.4 40.4001 191.4 40.0001V37.8001C191.4 37.4001 191.2 37.2001 190.8 37.2001H182.8V30.6001H189.8C190.2 30.6001 190.4 30.4001 190.4 30.0001V27.8001C190.4 27.4001 190.2 27.2001 189.8 27.2001H182.8V21.0001H190.8C191.2 21.0001 191.4 20.8001 191.4 20.4001V18.2001C191.4 17.8001 191 17.6001 190.8 17.6001Z" fill="#48C6DD"/>
<path d="M138.6 17.6001H136.2C136 17.6001 135.8 17.8001 135.8 18.0001L132.2 33.4001L128.6 18.0001C128.6 17.8001 128.4 17.6001 128.2 17.6001H126C125.8 17.6001 125.6 17.8001 125.6 18.0001L122 33.4001L118.4 18.0001C118.4 17.8001 118.2 17.6001 118 17.6001H115.6C115.4 17.6001 115.2 17.8001 115.2 18.0001C115.2 18.0001 115.2 18.0001 115.2 18.2001L120.4 40.4001C120.4 40.6001 120.6 40.8001 120.8 40.8001H123.2C123.4 40.8001 123.6 40.6001 123.6 40.4001L127.2 25.0001L130.8 40.4001C130.8 40.6001 131 40.8001 131.2 40.8001H133.6C133.8 40.8001 134 40.6001 134 40.4001L139.2 18.2001C139.2 17.8001 139 17.6001 138.6 17.6001C138.8 17.6001 138.8 17.6001 138.6 17.6001Z" fill="#48C6DD"/>
</svg>

<svg xmlns="http://www.w3.org/2000/svg" width="208" height="59" fill="none" viewBox="0 0 208 59">
  <path fill="#48C6DD" d="M29.2 6.4C16.8 6.4 6.6 16.4 6.6 29c0 12.6 10 22.6 22.6 22.6 12.6 0 22.6-10 22.6-22.6 0-12.4-10.2-22.6-22.6-22.6Zm-6 3.2c4-1.2 8.4-1.2 12.4 0-1.2.8-2.2 2.2-2.8 3.6-.8 2.6 0 5 .8 7v.2c.4 1.2.6 2.8-.6 3.8-.4-.4-1-.8-1.6-1 .2-2.6-1.2-4.8-4.2-6H27c-1.8-.8-3.4-1.6-4.4-3.2-.6-1.6-.2-3.2.6-4.4ZM32.4 29c0 1.8-1.4 3.2-3.2 3.2-1.8 0-3.2-1.6-3.2-3.2s1.4-3.2 3.2-3.2c1.8 0 3.2 1.4 3.2 3.2ZM19.6 11.2c-.2 1.4 0 3 .8 4.4C21.6 18 24 19 26 20l.2.2c1.2.6 2.4 1.4 2.4 3-.6 0-1.2.2-1.8.4-1.6-2-4.4-2.6-7.2-1.4h-.2c-2 .8-3.6 1.2-5.2.8-1.4-.4-2.4-1.6-3-3 1.8-3.8 4.8-7 8.4-8.8ZM9.8 35c-1.2-3.8-1.2-8 0-11.8.8 1 2 1.8 3.4 2.4 2.6.8 5 0 7.2-.8h.2c1.2-.4 3-.6 4 .6-.4.4-.6 1-1 1.6-2.6-.2-5 1.2-6.2 4h-.2c-.8 1.8-1.6 3.4-3.2 4.2-1.2.4-2.8.4-4.2-.2Zm9.6 11.8c-3.6-2-6.4-5-8.2-8.4h1c1.2 0 2.2-.2 3.2-.8 2.4-1.2 3.6-3.4 4.4-5.4l.2-.2c.6-1.2 1.6-2.6 3.4-2.4 0 .6.2 1.2.4 1.8-2 1.6-2.6 4.4-1.6 7.2v.2c.8 1.8 1.4 3.4.8 5.2-.6 1.8-2.2 2.6-3.4 3l-.2-.2Zm15.8 1.6c-4 1.2-8.4 1.2-12.4 0 1.2-.8 2.2-2.2 2.8-3.6.8-2.6 0-5-.8-7v-.2c-.4-1.2-.8-2.8.6-4 .4.4 1 .8 1.6 1-.2 2.6 1.2 4.8 4.2 6.2l.2.2c1.8.8 3.4 1.6 4.2 3.2.8 1.4.4 3-.4 4.2.2-.2.2-.2 0 0Zm3.6-1.6c.2-1.4 0-3-.8-4.2-1.2-2.4-3.6-3.4-5.6-4.4l-.2-.2c-1.2-.6-2.6-1.6-2.4-3.2.6 0 1.2-.2 1.8-.4 1.6 2 4.4 2.6 7.4 1.6h.2c2-.8 3.6-1.2 5.2-.8 1.4.4 2.4 1.6 3 2.8-2 3.8-5 6.8-8.6 8.8ZM49.4 29c0 2-.2 4-.8 5.8-.8-1-2-1.8-3.4-2.2-2.6-.8-5 0-7 .8H38c-1.2.4-3 .6-4.2-.6.4-.4.6-1 1-1.4h.6c2.4 0 4.4-1.4 5.6-4l.2-.2c.8-1.8 1.6-3.4 3.2-4.2 1.4-.6 3-.6 4.2 0 .6 2 .8 4 .8 6ZM43 20.4c-2.4 1.2-3.6 3.4-4.4 5.4l-.2.2c-.6 1.2-1.6 2.6-3.4 2.4 0-.6-.2-1.2-.4-1.8 2-1.6 2.6-4.4 1.6-7.2v-.2c-.8-1.8-1.4-3.4-.8-5.2.6-1.8 2.2-2.6 3.4-3h.2c3.6 2 6.4 5 8.2 8.6-1.4 0-2.8.2-4.2.8Z"/>
  <path fill="#48C6DD" d="M29.2.2C13.4.2.6 13 .6 29s12.8 28.6 28.8 28.6C45.2 57.6 58 44.8 58 29 57.8 13.2 45 .2 29.2.2Zm0 53.8C15.4 54 4 42.8 4 29S15.2 4 29 4s25.2 11.2 25.2 25-11.2 25-25 25Z"/>
  <path fill="#48C6DD" d="M53 5.4C50.4 2.6 46.8.6 43.8 0c-.2 0-.4 0-.4.4 0 .2 0 .4.2.4 6.2 3 11.2 8 14 14.2 0 .2.4.2.6.2.2 0 .2-.2.2-.4-.8-3.4-2.6-6.8-5.4-9.4ZM14.8 57.2c-6.2-3-11.2-8-14-14.2 0-.2-.4-.2-.6-.2-.2.2-.2.4-.2.6.6 3.2 2.6 6.6 5.2 9.4 2.8 2.8 6.2 4.8 9.2 5.4.2 0 .4-.2.4-.4.2-.4 0-.4 0-.6ZM81 17.6H70.4c-.4 0-.6.2-.6.6V40c0 .4.2.6.6.6h2.2c.4 0 .6-.2.6-.6v-9.2H80c.4 0 .6-.2.6-.6V28c0-.4-.2-.6-.6-.6h-6.8V21H81c.4 0 .6-.2.6-.6v-2.2c0-.4-.2-.6-.6-.6Zm16.4 19.6h-7.8v-19c0-.4-.2-.6-.6-.6h-2.2c-.4 0-.6.2-.6.6V40c0 .4.2.6.6.6h10.6c.4 0 .6-.2.6-.6v-2.2c0-.2-.2-.6-.6-.6Zm14.8-19.8h-2.4c-.2 0-.4.2-.6.4l-4.8 8.8-4.8-8.8c-.2-.2-.4-.4-.6-.4h-2.4c-.4 0-.6.2-.6.6v.2l6.6 12.2v9.4c0 .4.2.6.6.6h2.2c.4 0 .6-.2.6-.6v-9.2l6.6-12.4c.2-.4 0-.6-.2-.8 0 .2-.2 0-.2 0Zm95.2 19.8h-7.8v-19c0-.4-.2-.6-.6-.6h-2.2c-.4 0-.6.2-.6.6V40c0 .4.2.6.6.6h10.6c.4 0 .6-.2.6-.6v-2.2c0-.2-.2-.6-.6-.6Zm-50.6-19.6h-2.2c-.4 0-.6.2-.6.6v9.2h-7.6v-9.2c0-.4-.2-.6-.6-.6h-2.2c-.4 0-.6.2-.6.6V40c0 .4.2.6.6.6h2.2c.4 0 .6-.2.6-.6v-9.2h7.6V40c0 .4.2.6.6.6h2.2c.4 0 .6-.2.6-.6V18.2c0-.4-.4-.6-.6-.6Zm17 0H163c-.4 0-.6.2-.6.6V40c0 .4.2.6.6.6h10.8c.4 0 .6-.2.6-.6v-2.2c0-.4-.2-.6-.6-.6h-8v-6.6h7c.4 0 .6-.2.6-.6v-2.2c0-.4-.2-.6-.6-.6h-7V21h8c.4 0 .6-.2.6-.6v-2.2c0-.4-.2-.6-.6-.6Zm17 0H180c-.4 0-.6.2-.6.6V40c0 .4.2.6.6.6h10.8c.4 0 .6-.2.6-.6v-2.2c0-.4-.2-.6-.6-.6h-8v-6.6h7c.4 0 .6-.2.6-.6v-2.2c0-.4-.2-.6-.6-.6h-7V21h8c.4 0 .6-.2.6-.6v-2.2c0-.4-.4-.6-.6-.6Zm-52.2 0h-2.4c-.2 0-.4.2-.4.4l-3.6 15.4-3.6-15.4c0-.2-.2-.4-.4-.4H126c-.2 0-.4.2-.4.4L122 33.4 118.4 18c0-.2-.2-.4-.4-.4h-2.4c-.2 0-.4.2-.4.4v.2l5.2 22.2c0 .2.2.4.4.4h2.4c.2 0 .4-.2.4-.4l3.6-15.4 3.6 15.4c0 .2.2.4.4.4h2.4c.2 0 .4-.2.4-.4l5.2-22.2c0-.4-.2-.6-.6-.6.2 0 .2 0 0 0Z"/>
</svg>
